!!!!SEGMENT: pl-sa--481-a-viii-121--003_pleyel-ignace--rondo-allegro.krn
!!!cenid: 18xx:374
!!!COM: Pleyel, Ignace
!!!COM-rismid: pe24761
!!!CDT: 1757/06/18-1831/11/14
!!!CNT: French
!!!OTL: Rondo Allegro
!!!PDT:
!!!AGN: Secular
!!!SMS-siglum: PL-SA
!!!SMS-shelfmark: 481/A VIII 121
!!!SMS-shelfwork: 003 W
!!!SMS-variant:
!!!SMS-altvar:
!!!NIFC-rismid: 1001070436
!!!URL-scan: http://bc.bdsandomierz.pl/dlibra/publication/1212/edition/1171/content
!!!ONB-nifc: Str. 3 (s. 4) – str. 4 (s. 1)
**kern	**kern
*part1	*part1
*staff2	*staff1
*Ipiano	*Iempty
*I"Piano	*
*I'P-no	*
*clefF4	*clefG2
*k[]	*k[]
*d:	*d:
*M2/4	*M2/4
!LO:TX:a:t=P:problem:przy kluczu powinny być znaki f# c#	!LO:TX:a:t=P:problem:przy kluczu powinny być znaki f# c#
!	!LO:TX:a:i:t=Rondo Allegro par Mr Pleyel
4r	8aa\L
.	8aa\J
*clefG2	*
=1	=1
16d/LL	(8bb\L
16a/	.
!LO:SIC:v:s=f#	!
16f/	8aa\)
16a/JJ	.
*rep	*
!	!LO:SIC:v:s=ff#
16d/LL	8ff'\
16a/	.
!LO:SIC:v:s=f#	!LO:SIC:v:s=ff#
16f/	8ff'\J
16a/JJ	.
*Xrep	*
=2	=2
!LO:SIC:v:s=c#	!
16c/LL	(8aa\L
16a/	.
16e/	8gg\)
16a/JJ	.
*rep	*
!LO:SIC:v:s=c#	!
16c/LL	8ee'\
16a/	.
16e/	8ee'\J
16a/JJ	.
*Xrep	*
=3	=3
.	8qgg/
!	!LO:SIC:v:s=ff#
16d/LL	8ff\L
16a/	.
!LO:SIC:v:s=f#	!
16f/	16ee\L
16a/JJ	16dd\JJ
!	!LO:SIC:v:s=cc#
16e/LL	8cc\L
16a/	.
16d/	8dd\J
16a/JJ	.
=4	=4
!LO:TX:a:t=P:problem:mixed beam	!
!	!LO:SIC:v:n=1:s=ff#
8A/L	8ffL 8dd\
!	!LO:SIC:v:n=2:s=cc#
8a\J	8eeJ 8cc\
4r	8aa\L
.	8aa\J
=5	=5
16d/LL	8ddd\L
16a/	.
!LO:SIC:v:s=f#	!
16f/	8aa\
16a/JJ	.
*rep	*
!	!LO:SIC:v:s=ff#
16d/LL	8ff'\
16a/	.
!LO:SIC:v:s=f#	!LO:SIC:v:s=ff#
16f/	8ff'\J
16a/JJ	.
*Xrep	*
=6	=6
!LO:SIC:v:s=c#	!
16c/LL	(8aa\L
16a/	.
16e/	8gg\)
16a/JJ	.
*rep	*
!LO:SIC:v:s=c#	!
16c/LL	8ee'\
16a/	.
16e/	8ee'\J
16a/JJ	.
*Xrep	*
=7	=7
.	8qgg/
!	!LO:SIC:v:s=ff#
8d/L	8ff\L
!LO:SIC:v:s=f#	!
8f/	16ee\L
.	16dd\JJ
8g/	16b\LL
.	16dd\
!	!LO:SIC:v:s=cc#
8a/J	16cc\
.	16ee\JJ
*clefF4	*
=	=
!LO:TX:a:t=P:problem:mixed beam	!
8d\L	4dd\
8D/J	.
!LO:LB:g=original	!LO:LB:g=original
=8:|!|:	=8:|!|:
!LO:CL:ed	!
*clefG2	*
!LO:TX:a:t=P:problem:klucz niewidoczny	!
!LO:TX:a:t=P:problem:mixed beam	!
16c/LL	8ee\L
16a\	.
16c/	8ee\J
16a\JJ	.
=9	=9
!	!LO:SIC:v:s=ff#
16d/LL	8ff\L
16a/	.
!	!LO:SIC:v:s=ff#
16d/	8ff\J
16a/JJ	.
.	8qaa/
4ryy	8gg\L
!	!LO:SIC:v:s=ff#
.	16ff\L
.	16gg\JJ
=10	=10
16f\LL	4aa\
16a\	.
16f\	.
16a\JJ	.
*rep	*
*ped	*
16f\LL	16dddn\LL
!	!LO:SIC:v:s=cc#
16a\	16ccc\
16f\	16bb\
16a\JJ	16aa\JJ
*Xrep	*
=11	=11
.	8qaa/
16e/LL	8gg\L
16a/	.
16e/	16gg\L
16a/JJ	16ee\JJ
.	8qgg/
16d/LL	8ff\L
16a/	.
!	!LO:SIC:v:s=ff#
16d/	16ff\L
16a/JJ	16dd\JJ
=12	=12
!	!LO:SIC:v:s=ff#
8a/L	8ffL 8dd\
!	!LO:SIC:v:n=2:s=cc#
8A/J	8eeJ 8cc\
4r	8aa\L
.	8aa\J
*clefF4	*
=13	=13
16D\LL	(8ddd\L
16A\	.
16F\	8aa\)
16A\JJ	.
*rep	*
!	!LO:SIC:v:s=ff#
16D\LL	8ff'\
16A\	.
!	!LO:SIC:v:s=ff#
16F\	8ff'\J
16A\JJ	.
*Xrep	*
=14	=14
16C\LL	(8aa\L
16A\	.
16E\	8gg\)
16A\JJ	.
*rep	*
16C\LL	8ee'\
16A\	.
16E\	8ee'\J
16A\JJ	.
*Xrep	*
=15	=15
.	8qgg/
!	!LO:SIC:v:s=ff#
8D\L	8ff\L
8F\	16ee\L
.	16dd\JJ
8G\	16b\LL
.	16dd\
!	!LO:SIC:v:s=cc#
8A\J	16cc\
.	16ee\JJ
=	=
!LO:TX:a:t=P:problem:mixed beam	!
8d\L	8dd\
8D/J	8r
=16:|!|:	=16:|!|:
*	*k[f#cn]
!LO:TX:a:t=P:problem:brak oznaczenia tonacji	!
4r	8dd\L
.	8dd\J
=17	=17
4d 4B 4G\	(16gg\LL
.	16ff#\)
.	(16aa\
.	16gg\JJ)
4r	(16bb\LL
.	16aa\)
.	(16cccn\
.	16bb\JJ)
=18	=18
8dL 8B 8G\	8ddd'\L
8d 8B 8G\	8ddd'\
8dJ 8B 8G\	8ddd'\J
!	!LO:N:vis=8
8r	16bb\LL
!	!LO:N:vis=8
.	16gg\JJ
=19	=19
!LO:SIC:v:n=3:s=8F#	!LO:N:vis=4
8d 8A 8F\	8cccn\L
!	!LO:N:vis=8
8r	16ccc\L
!	!LO:N:vis=8
.	16ccc\JJ
!	!LO:N:vis=4
8d 8B 8G\	8bb'\L
8r	(16ccc\L
.	16bb\JJ)
!LO:PB:g=original	!LO:PB:g=original
=20	=20
!LO:SIC:v:n=1:s=8F#	!
4F 4D\	(16aa\LL
.	16gg\
.	16ff#\
.	16ee\JJ)
4r	8dd\L
.	8dd\J
=21	=21
8d\	8a 8f#/
8r	8r
8d 8B\	16dd\LL
.	16ee\
8r	16ff#\
.	16dd\JJ
=22	=22
8B 8G\	16ee\LL
.	16ff#\
8r	16gg\
.	16ee\JJ
8G 8E 8AA/	16cc\LL
.	16dd\
8r	16ee\
.	16cc\JJ
=23	=23
!LO:SIC:v:n=1:s=8F#	!
4F 4D\	16dd\
.	16dd\LL
.	16ee\
.	16ff#\JJ
4r	16gg\LL
.	16aa\
.	16bb\
.	16ccc\JJ
=24	=24
8r	8ddd\
!LO:TX:a:t=P:problem:mixed beam	!
8D\L	8dddL 8ff#\
8A\	8ccc 8aa 8ee\
8AA/J	8cccJ 8aa 8ee\
=25	=25
4D\	16dddLL 16aa 16ff#\
.	16dd\
.	16ee\
.	16ff#\JJ
4r	16gg\LL
.	16aa\
.	16bb\
.	16ccc\JJ
=26	=26
8r	8ddd\L
!LO:TX:a:t=P:problem:mixed beam	!
!LO:SIC:v:n=1:s=8F#	!
8FL 8D\	8ddd 8ff#\
8A\	8ccc 8aa 8ee\
8AA/J	8cccJ 8aa 8ee\
=27	=27
!LO:TX:a:t=P:problem:mixed beam	!
8D\L	8dddL 8aa 8ff#\
!LO:SIC:v:s=8F#	!
8F\	8ddd 8aa 8ff#\
8A\	8ccc 8aa 8ee\
8AA/J	8cccJ 8aa 8ee\
=28	=28
4D\	4ddd 4aa 4ff#\
!LO:SIC:v:n=2:s=8F#	!
4A 4F 4D\	4ddd 4aa 4ff#\
=29	=29
!LO:SIC:v:n=2:s=8F#	!
4A 4F 4D\	4ddd 4aa 4ff#\
4r	4r
==	==
*-	*-
!!!system-decoration: {(s1,s2)}
!!!AIN: 1 piano
!!!ENC: Marta Lawrence
!!!END: 2020-11-19
!!!ENC: Marcin Jachim
!!!END: 2020-06-14
